X:1
T:Magnificat primi toni II Lasso
T:#
%%score [ 1 2 3 4 ]
L:1/8
Q:1/4=132
M:12/4
K:C
V:1 treble nm="S" snm="S"
V:2 treble nm="A" snm="A"
V:3 treble-8 nm="T" snm="T"
V:4 treble nm="B" snm="B"
V:1
 z12 | z24 ||[K:D][K:treble][Q:1/4=180][Q:1/4=180][Q:1/4=180][Q:1/4=180] G16 | (A8 B8) | G8 E8 | %5
w: ||Et|ex\- *|ul- ta-|
 D4 d4 B4 (d4- | d2 cB c4) (d6 c2 | B2 A2 B6 A2 G4) | F16- | F8 z4 B4- | B4 d4 c4 (d4- | %11
w: vit, et ex- ul\-|* * * * ta\- *||vit|* spi\-|* ri- tus me\-|
 d2 c2 B6 ^A^G A4) | B4 F4 F8 | F4 F4 F8- | F8 F8 | z16 | B8 B8 | A8 (G8 | A8) (G8 | F8) E4 (e4- | %20
w: |us in De-|o, in De-|* o||sa- lu-|ta- ri|* me\-|* o, sa\-|
 d4) B4 =c4 A4 | (B2 A2 G2 F2) E4 A4 | B4 G4 A8 | z4 G8 G4 | (G12 F4) | G4 (E8 F4- | %26
w: * lu- ta- ri|me\- * * * o, sa-|lu- ta- ri,|sa- lu-|ta\- *|ri me\- *|
 F2 E2 E6 ^DC D4) | E16 ||[Q:1/4=132][Q:1/4=132][Q:1/4=132][Q:1/4=132] z20 | z18 || %30
w: |o.|||
[Q:1/4=180][Q:1/4=180][Q:1/4=180][Q:1/4=180] z16 | z16 | z16 | G16 | A4 (B6 ^A^G A4) | B8 d8- | %36
w: |||Qui-|a fe\- * * *|cit mi\-|
 d4 d4 d8 | A8 z4 d4 | d4 (A2 B2 c2 d2 e4- | e4 c6 B2 A2 G2) | F4 d8 B4- | B4 ^A4 B8 | z4 B4 B8 | %43
w: * hi ma-|gna, mi-|hi ma\- * * * *||gna, qui po\-|* tens est,|et san-|
 A8 G8 | F8 (G8- | G4 F4) E4 e4 | e4 d4 =c8 | (B6 A2 G4) (A4- | A2 G2 G8 F4) | G4 B4 B4 A4 | %50
w: ctum no-|men e\-|* * ius, et|san- ctum no-|men * * e\-||ius, et san- ctum|
 G4 F4 (G2 A2 B2 c2 | d4) B4 c4 d4 | B4 =c8 c4 | B16 | ^G16 || %55
w: no- men e\- * * *|* ius, et san-|ctum no- men|e-|ius.|
[Q:1/4=132][Q:1/4=132][Q:1/4=132][Q:1/4=132] z22 | z18 || %57
w: ||
[M:3/1][Q:1/4=360][Q:1/4=360][Q:1/4=360][Q:1/4=360] G16 G8 | F8 G8 A8 | B16 B8 | d16 c8 | %61
w: Fe- cit|po- ten- ti-|am in|bra- chi-|
 (B12 c4 d8) | (A4 B4 c4 d4 e8- | e4 d4 B4 d8 A4 | =c4 B8 ^G4 ^A8) | B16 B8 | B16 B8 | B8 B16 | %68
w: o * *|su\- * * * *|||o: di-|sper- sit|su- per-|
 B16 B8 | B8 A16 | G8 (F4 G4 A4 F4 | G4 E4 F4 G4 A4 B4 | c4 d4 e4 d4 c4 B4 | A4 G4 F4 E4 D4 E4 | %74
w: bos men-|te- cor-|dis su\- * * *||||
 F8) F8 B8 | B16 A8 | G8 (A16- | G8 F16) | E24 || %79
w: * i, men-|te cor-|dis su\-||i.|
[M:3/1][Q:1/4=132][Q:1/4=132][Q:1/4=132][Q:1/4=132] z22 | z20 || %81
w: ||
[Q:1/4=180][Q:1/4=180][Q:1/4=180][Q:1/4=180] z16 | z16 | z16 | z8 G8 | G4 G4 (A8 | %86
w: |||E-|su- ri- en\-|
 B6 A2 B2 c2 d4- | d2 cB c4) d8- | d4 A4 d4 d4 | c8 B4 B4 | e4 d8 (c4- | c2 B2 B6 ^A^G A4) | %92
w: |* * * * tes|* im- ple- vit|bo- nis, im-|ple- vit bo\-||
[M:4/2] B8 B8 | B4 B4 B8 | A8 A4 A4 | A8 A8 | =c4 A2 A2 G4 F2 F2 | G4 F2 F2 E4 E4- | %98
w: nis: et|di- vi- tes,|et di- vi-|tes di-|mi- sit i- na- nes, di-|mi- sit i- na- nes,|
 E2 E2 F4 D2 D2 E4 | D4 G8 F4 | G4 F8 (E4 | ^D4 E6 DC D4) | E16 || %103
w: * di- mi- sit i- na-|nes, di- mi-|sit i- na\-||nes.|
[Q:1/4=132][Q:1/4=132][Q:1/4=132][Q:1/4=132] z22 | z18 || %105
w: ||
[M:4/2][Q:1/4=180][Q:1/4=180][Q:1/4=180][Q:1/4=180] B8 B4 B4 | G4 G4 F4 d4 | B4 d4 A4 B4 | %108
w: Si- cut lo-|cu- tus est, si-|cut lo- cu- tus|
 F4 A4 A4 B4 | =c4 A4 B8 | B4 B2 B2 A4 F4 | F4 F2 F2 E4 F4 | d4 c2 c2 d4 B4 | B4 ^A2 A2 B4 F2 F2 | %114
w: est, si- cut lo-|cu- tus est|ad pa- tres no- stros,|ad pa- tres no- stros,|ad pa- tres no- stros,|ad pa- tres no- stros, ad|
 G2 B2 ^A4 B8 | ^G12 G4 | ^G4 G4 A6 B2 | A4 =G4 F4 G4 | E6 E2 D4 d4 | d6 c2 d4 d4 | B4 A4 G6 G2 | %121
w: pa- tres no- stros,|A- bra-|ham, et se- mi-|ni e- ius in|sae- cu- la, et|se- mi- ni e-|ius in sae- cu-|
 F4 d4 d6 d2 | d4 d4 B8 | =c8 A8- | A4 ^G4 G16 ||[Q:1/4=132][Q:1/4=132][Q:1/4=132][Q:1/4=132] z22 | %126
w: la, et se- mi-|ni e- ius|in sae\-|* cu- la.||
 z18 ||[M:4/2][Q:1/4=180][Q:1/4=180][Q:1/4=180][Q:1/4=180] G8 (A8 | B8) (c8 | d12 B4) | A8 z4 d4 | %131
w: |Si- cut|* e\-||rat, si-|
 B4 (d6 c2 B2 A2 | G2 A2 B2 G2 A2 B2 c2 d2 | B2 c2 d6 cB c4) | F4 d8 d4 | (c2 B2 B6 ^A^G A4) | %136
w: cut e\- * * *|||rat, si- cut|e\- * * * * *|
 B4 G8 G4 | F4 F4 F8 | F8 F8- | F4 E4 G8- | G8 (G6 A2 | B4) =c8 B4- | B4 (d6 cB A4- | %143
w: rat in prin-|ci- pi- o,|et nunc|* et sem\-|* per, *|* et nunc,|* et * * *|
 A2 B2 =c4) (B6 A2 | G8) !fermata!F16 || ^G12 G4 | ^G4 G4 A8 | B12 B4 | B4 B4 A4 B4- | %149
w: * * * sem\- *|* per,|Et in|sae- cu- la,|et in|sae- cu- la sae\-|
 B2 A2 G4 F4 F4 | F4 G8 G4 | F4 G4 F4 F4- | F2 F2 E4 C4 (E4- | E2 ^DC D4) E4 G4 | G8 F4 G4 | %155
w: * cu- lo- rum, A-|men, et in|sae- cu- la sae-|* cu- lo- rum, A\-|* * * * men, et|in sae- cu-|
 F4 F6 F2 E4 | =c8 B8 | ^G16 |] %158
w: la sae- cu- lo-|rum, A-|men.|
V:2
 z12 | z24 ||[K:D][K:treble] z16 | D12 D4 | E4 (D6 CB, C4) | D12 B,4 | E4 E4 G4 F4 | %7
w: |||Et ex-|ul- ta\- * * *|vit, et|ex- ul- ta- vit|
 (G6 FE D4) E4 | A,4 B,4 D8 | C4 D8 G4 | (F2 E2 F2 G2 A4) A4 | (D4 E4) F8 | ^D4 D8 D4- | %13
w: spi\- * * * ri-|tus, et ex-|ul- ta- vit|spi\- * * * * ri-|tus * me-|us in De\-|
 D4 ^D8 D4- | D4 !courtesy!^D8 D4 | F8 F4 E4 | =D8 (G6 F2 | E4) F4 D4 (E4- | E2 C2 F4) (D4 E4- | %19
w: * o, in|* De- o|sa- lu- ta-|ri, sa\- *|* lu- ta- ri|* * * me\- *|
 E4 D4 G8) | F4 (D4 E4) F4 | (G2 F2 E2 D2) C4 (F4- | F2 E2 E8 ^D4) | E8 =D8- | D4 D4 (D8 | %25
w: |o, sa\- * lu-|ta\- * * * ri me\-||o, sa\-|* lu- ta\-|
 B,8) =C8 | B,16 | B,16 || z20 | z18 || z8 G8- | G4 F4 E4 D4 | E8 D4 D4- | D4 E4 D4 E4 | F8 F8- | %35
w: * ri|me-|o.|||Qui\-|* a fe- cit|mi- hi, qui\-|* a fe- cit|mi- hi|
 F4 G4 G8 | D4 G8 F4 | F16 | F8 E4 C4 | E8 F8- | F4 (B,4 D4) E4 | F8 z4 F4 | F8 E4 D4- | %43
w: * ma- gna,|mi- hi ma-|gna,|qui po- tens|est, qui|* po\- * tens|est, et|san- ctum no-|
 (D2 E2 F2 D2 E4) D4 | (D4 C4) B,8 | B,8 =C8- | C4 B,4 A,8 | D16 | (E8 D8) | D4 D4 G4 F4 | %50
w: * * * * * men|e\- * ius,|et san\-|* ctum no-|men|e\- *|ius, et san- ctum|
 E4 ^D4 (E2 F2 G2 E2 | F4 G4) E4 F4 | G4 E4 E8 | E4 (E6 ^DC D4) | E16 || z22 | z18 || %57
w: no- men e\- * * *|* * ius, et|san- ctum no-|men e\- * * *|ius.|||
[M:3/1] G16 E8 | D8 B,8 =C8 | B,8 E8 G8- | G8 F8 (E8- | E4 F4 G8) (D4 E4 | F4 G4 A12 G4 | %63
w: Fe- cit|po- ten- ti-|am in bra\-|* chi- o|* * * su\- *||
 E4 F4 G8 F8 | E8 D4 E4 C8) | B,8 E8 E8 | D8 G8 E8 | B,8 G8 E8 | G8 D8 E8 | B,8 F8 F8 | E8 D16 | %71
w: ||o: di- sper-|sit su- per-|bos, di- sper-|sit su- per-|bos men- te|cor- dis|
 (E8 D8 C4 B,4 | A,4 B,4 C4 D4 E8 | F4 G4 A4 G4 F4 E4 | D4 C4 B,4 A,4 G,8) | E,4 E8 B,4 C4 D4 | %76
w: su\- * * *||||i, men- te cor- dis|
 (E4 G8 F4 D4 F4- | F4 E8 ^D2 C2 D8) | E24 ||[M:3/1] z22 | z20 || z16 | z16 | z16 | z4 D4 D4 D4 | %85
w: su\- * * * *||i.||||||E- su- ri-|
 E8 F4 F4 | G12 G4 | E8 D4 B,4 | F4 F4 F8 | E4 E4 G8- | G8 (F8 | G8) F8 |[M:4/2] D8 G8 | G4 G4 G8 | %94
w: en- tes, e-|su- ri-|en- tes im-|ple- vit bo-|nis, im- ple\-|* vit|* bo-|nis: et|di- vi- tes,|
 F8 F4 F4 | F8 F8 | G4 F2 E2 E4 ^D2 D2 | E4 C2 D2 B,4 C4- | C2 C2 D4 B,2 A,2 A,4 | B,4 D4 D4 D4 | %100
w: et di- vi-|tes di-|mi- sit i- na- nes, di-|mi- sit i- na- nes,|* di- mi- sit i- na-|nes, di- mi- sit|
 (B,2 C2 D2 C2 D4) (B,4- | B,4 A,4 B,8) | ^G,16 || z22 | z18 ||[M:4/2] E8 G4 F4 | E4 D4 D4 F4 | %107
w: i\- * * * * na\-||nes.|||Si- cut lo-|cu- tus est, si-|
 G4 F4 F4 D4 | D4 F4 E4 G4 | G4 F4 G8 | G4 G2 G2 F4 D4 | D4 D2 D2 C4 D4 | F4 F2 F2 F4 G4 | %113
w: cut lo- cu- tus|est, si- cut lo-|cu- tus est|ad pa- tres no- stros,|ad pa- tres no- stros,|ad pa- tres no- stros,|
 F4 F2 F2 ^D4 D2 D2 | E2 E2 F4 ^D8 | E12 E4 | E4 E4 F6 G2 | F4 E4 D4 D4 | C6 C2 B,4 B,4 | %119
w: ad pa- tres no- stros, ad|pa- tres no- stros,|A- bra-|ham, et se- mi-|ni e- ius in|sae- cu- la, et|
 B,6 A,2 B,4 F4 | G4 F4 E6 E2 | D4 F4 G6 G2 | F8 D8 | E4 E4 E6 E2 | E24 || z22 | z18 || %127
w: se- mi- ni e-|ius in sae- cu-|la, et se- mi-|ni e-|ius in sae- cu-|la.|||
[M:4/2] z8 D8- | D4 (E8 F4- | F4 D4 G6 F2 | E2 D2 E2 F2 G4) F4 | F8 D8 | (E8 F8) | %133
w: Si\-|* cut *||* * * * * e-|rat, si-|cut *|
 (G6 F2 E2 D2 E4) | D4 F8 F4 | (G8 F6 E2 | D2 C2 D4) E8 | D8 D4 D4- | D4 D4 D8 | C8 D4 E4 | %140
w: e\- * * * *|rat si- cut|e\- * *|* * * rat|in prin- ci\-|* pi- o,|et nunc et|
 (E4 D4) E4 D4 | G4 G4 G8 | F8 F8 | E12 F4 | E8 ^D16 || E12 E4 | E4 E4 F8 | G12 G4 | G4 G4 F4 G4- | %149
w: sem\- * per, et|nunc et sem-|per, et|nunc et|sem- per,|Et in|sae- cu- la,|et in|sae- cu- la sae\-|
 G2 F2 E4 D4 C4 | ^D4 E8 E4 | ^D4 E4 =D4 C4 | D4 B,4 E4 C4 | B,8 E8- | E4 E4 ^D4 E4 | %155
w: * cu- lo- rum, A-|men, et in|sae- cu- la sae-|cu- lo- rum, A-|men, et|* in sae- cu-|
 =D4 C4 D4 B,4 | E4 (E8 ^D4) | E16 |] %158
w: la sae- cu- lo-|rum, A\- *|men.|
V:3
[K:D]"^Orlando di Lasso\n(1530-94)""^Magnificat primi toni II" G2 A2 B2 B2 B4 | %1
w: Ma- gni\- * fi- cat|
w: |
 B8 A2 G2 A2 B2 A2 B2 G4 || z16 | z8 G8- | G8 (A8 | B8) G8 | E8 (B6 c2 | d2 e2 d4) (B6 c2) | %8
w: anima me- a Do\- * mi- num. *||Et|* ex\-|* ul-|ta- vit, *|* * * spi\- *|
w: |||||||
 d4 d4 B8 | A8 (B6 c2 | d4) d4 e4 f4 | (B8 c8) | B8 B8 | B8 B8- | B8 z4 B4- | B4 B4 A4 G4- | %16
w: * ri- tus|me- us, *|* spi- ri- tus|me\- *|us in|De- o|* sa\-|* lu- ta- ri|
w: ||||||||
 G4 G4 E4 e4 | c4 d4 B4 (=c4- | c2 A2 d4 B4 =c4 | A4 B4) E8 | z16 | z16 | z16 | B16 | B8 A8 | %25
w: * me- o, sa-|lu- ta- ri me\-||* * o,||||sa-|lu- ta-|
w: |||||||||
 (G8 A8) | (G8 F8) | E16 || G2 A2 B2 B4 =c2 B2 A2 B4 | B4 A2 G2 A2 B2 A2 G4 || z8 G8- | %31
w: ri *|me\- *|o.|Qui- a * respexit~humilitatem an\-cil- lae su- ae:|ecce~enim~ex~hoc~beatam * * * * * *|Qui\-|
w: ||||me~dicent~omnes~gene- ra- ti- o\- * nes. *||
 G8 A4 (B4- | B4 A4) B4 B4- | B4 G4 (B8 | d8) (c8 | B8) B8- | B4 B4 A8 | d8 A8- | A4 A4 (A6 B2 | %39
w: * a fe\-|* * cit, qui\-|* a fe\-|* cit|* mi\-|* hi ma-|gna, mi\-|* hi ma\- *|
w: ||||||||
 c4) (A6 B2 c4) | d8 B8 | c8 (B6 c2 | d8) z8 | z8 z4 B4 | B4 A4 (G6 F2 | E4) F4 (G4 A4 | %46
w: * gna * *|qui po-|tens est, *||et|san- ctum no\- *|* men e\- *|
w: |||||||
 G2 E2 G6 FE F4) | G4 B4 B4 A4 | B4 =c4 A8 | G8 z8 | B16 | B8 A8 | G8 A8 | (G8 F8) | E16 || %55
w: |ius, et san- ctum|no- men e-|ius,|et|san- ctum|no- men|e\- *|ius.|
w: |||||||||
 G2 A2 B2 B4 =c2 B2 A2 B2 B4 | B4 A2 G2 A2 B2 A2 G4 ||[M:3/1] z24 | z24 | z24 | z24 | z24 | z24 | %63
w: Et mis\- * ericordia~eius~a~progenie in pro- ge- ni- es|timen- ti- bus e\- * um. *|||||||
w: ||||||||
 z24 | z24 |[M:3/1] z24 | z24 | z24 | z24 | z24 | z24 | z24 |[M:3/1] z24 | z24 | z24 | z24 | z24 | %77
w: ||||||||||||||
w: ||||||||||||||
 z24 | z24 ||[M:3/1][K:treble-8] G2 A2 B2 B4 =c2 B2 B2 A2 B4 | B4 A2 G2 A2 B2 A2 A2 G4 || %81
w: ||De po\- * suit~po- ten- tes de se- de,|et~exal- ta- vit hu\- * mi- les. *|
w: ||||
 G8 G4 G4 | (A8 B6 A2 | B2 c2 d8 c4) | d4 G4 B4 B4 | B8 d8 | G4 d8 B4 | (A6 G2 F4) G4 | A12 A4 | %89
w: E- su- ri-|en\- * *||tes, e- su- ri-|en- tes,|e- su- ri-|en\- * * tes|im- ple-|
w: ||||||||
 (A2 B2 c2 A2 d4) e4 | B12 c4 | d4 e4 c8 |[M:4/2][K:treble-8] B8 d8 | d4 d4 d8- | d8 d8 | %95
w: vit * * * * bo-|nis, im-|ple- vit bo-|nis: et|di- vi- tes,|* et|
w: ||||||
 d4 d4 d4 d4 | e4 d2 =c2 B4 B2 B2 | B4 ^A2 B2 ^G4 =A2 E2 | A8 G2 F2 E4 | F4 B4 B4 A4 | G4 (A8 G4 | %101
w: di- vi- tes di-|mi- sit i- na- nes, di-|mi- sit i- na- nes, di-|mi- sit i- na-|nes, di- mi- sit|i- na\- *|
w: ||||||
 F4 E4 F8) | E16 || G2 A2 B2 B4 =c2 B2 B2 A2 B4 | B4 A2 G2 A2 B2 A2 G4 || %105
w: |nes.|Su- sce\- * pit~Israel pu- e- rum su- um|recordatus~misericor- di- ae su\- * ae. *|
w: ||||
[M:4/2][K:treble-8] B8 e4 d4 | B4 B4 A4 A4 | e4 B4 d4 G4 | A4 d4 c4 d4 | e4 d4 d4 d4 | %110
w: Si- cut lo-|cu- tus est, si-|cut lo- cu- tus|est, si- cut lo-|cu- tus est ad|
w: |||||
 e2 e2 d4 d4 A4 | B2 B2 A4 A4 A4 | B2 B2 A4 A4 e4 | d2 d2 c4 B4 z2 B2 | B2 B2 c4 B4 B4- | %115
w: pa- tres no- stros, ad|pa- tres no- stros, ad|pa- tres no- stros, ad|pa- tres no- stros, ad|pa- tres no- stros, A\-|
w: |||||
 B4 B4 B8 | B8 d6 d2 | d4 B4 B4 B4 | A6 A2 F4 F4 | G6 E2 G4 A4 | d4 d4 B6 B2 | B4 B4 B6 B2 | %122
w: * bra- ham,|et se- mi-|ni e- ius in|sae- cu- la, et|se- mi- ni e-|ius in sae- cu-|la, et se- mi-|
w: |||||||
 B4 A4 G4 F4 | (A6 B2 =c4) c4 | B24 || G2 A2 B2 B2 =c2 B2 B2 A2 B2 B4 | B4 A2 G2 A2 B2 A2 G4 || %127
w: ni e- ius in|sae\- * * cu-|la.|Glo ri\- * a Pa- tri, et Fi- li- o,|et~Spiri- tu- i San\- * cto: *|
w: |||||
[M:4/2][K:treble-8] z16 | G8 (A8 | B6 A2 B2 c2 d4- | d4) c4 d4 B4 | d4 B4 F8 | z16 | G8 (A8 | %134
w: |Si- cut||* e- rat, si-|cut e- rat,||si- cut|
w: |||||||
 B8) (A8 | e6 d2 c2 B2 c4) | B8 B8- | B4 A4 A4 A4 | B8 A8- | A8 B8 | B8 =c4 B4 | e16 | %142
w: * e\-||rat in|* prin- ci- pi-|o, et|* nunc|et sem- per,|et|
w: ||||||||
 d4 B4 (A6 B2 | =c4) A2 A2 G4 F4 | B8 !fermata!B16 || B12 B4 | B4 B4 d4 d4- | d4 d4 d4 e4 | %148
w: nunc et sem\- *|* per, et nunc et|sem- per,|Et in|sae- cu- la, et|* in sae- cu-|
w: ||||||
 d8 d6 d2 | d4 B8 ^A4 | B8 B6 B2 | B4 B4 B4 ^A4 | B4 ^G4 A8 | F8 E4 B4- | B4 B4 B6 B2 | %155
w: la sae- cu-|lo- rum, A-|men, et in|sae- cu- la sae-|cu- lo- rum,|A- men, et|* in sae- cu-|
w: |||||||
 B4 ^A4 B4 ^G4 | A8 F8 | B16 |] %158
w: la sae- cu- lo-|rum, A-|men.|
w: |||
V:4
 z12 | z24 ||[K:D][K:bass] z16 | z16 | z16 | G,,16 | (A,,8 B,,8) | G,,4 (G,6 F,2 E,4) | %8
w: |||||Et|ex\- *|ul- ta\- * *|
 D,4 (B,,6 C,2 D,2 E,2 | F,4) D,4 G,4 E,4 | B,4 B,4 A,4 F,4 | (G,8 F,8) | B,,16 | B,,8 B,,8 | %14
w: vit spi\- * * *|* ri- tus me-|us, spi- ri- tus|me\- *|us|in De-|
 B,,16 | z16 | z16 | z16 | z16 | z8 B,8 | B,8 A,8 | (G,8 A,8) | (G,8 F,8) | E,8 G,8- | %24
w: o|||||sa-|lu- ta-|ri *|me\- *|o, sa\-|
 G,4 G,,4 (D,8 | E,8) A,,8 | B,,16 | E,16 || z20 | z18 || G,12 F,4 | E,4 D,4 =C,4 B,,4 | %32
w: * lu- ta\-|* ri|me-|o.|||Qui- a|fe- cit mi- hi|
 C,8 G,,4 G,4- | G,4 =C,4 G,4 E,4 | D,4 B,,4 F,8 | B,,4 G,,8 G,,4 | G,8 D,8 | z4 D,8 D,4 | %38
w: ma- gna, qui\-|* a fe- cit|mi- hi ma-|gna, mi- hi|ma- gna,|mi- hi|
 D,8 A,,8 | A,8 F,8 | (B,6 A,2 G,8 | F,8) B,,8- | B,,8 z8 | z16 | z8 z4 E,4 | E,4 D,4 =C,4 A,,4 | %46
w: ma- gna,|qui po-|tens * *|* est,|||et|san- ctum no- men|
 (=C,4 G,,4 A,,8) | G,,4 G,4 G,4 F,4 | E,4 =C,4 D,8 | G,,4 G,4 G,4 D,4 | E,4 B,,4 E,8 | %51
w: e\- * *|ius, et san- ctum|no- men e-|ius, et san- ctum|no- men e-|
 B,,4 E,4 A,,4 D,4 | (E,2 D,2 =C,2 B,,2 A,,4) A,,4 | (E,8 B,,8) | E,,16 || z22 | z18 || %57
w: ius, et san- ctum|no\- * * * * men|e\- *|ius.|||
[M:3/1] z24 | z24 | z24 | z24 | z24 | z24 | z24 | z24 |[M:3/1] z24 | z24 | z24 | z24 | z24 | z24 | %71
w: ||||||||||||||
 z24 |[M:3/1] z24 | z24 | z24 | z24 | z24 | z24 | z24 ||[M:3/1] z22 | z20 || z16 | z8 G,8 | %83
w: |||||||||||E-|
 G,4 G,4 A,8 | (B,6 A,2 G,6 F,2 | E,8 D,8) | z4 G,,4 G,,4 G,,4 | A,,8 B,,4 G,,4 | D,4 D,4 D,8 | %89
w: su- ri- en-|tes, * * *||e- su- ri-|en- tes im-|ple- vit bo-|
 A,,4 A,4 G,4 E,4 | (E,2 F,2 G,2 A,2 B,4 A,4 | G,4 E,4 F,8) |[M:4/2] B,,4 G,4 G,4 G,4 | G,16 | %94
w: nis, im- ple- vit|bo\- * * * * *||nis: et di- vi-|tes,|
 D,8 D,4 D,4 | D,12 D,4 | =C,4 D,2 A,,2 E,4 B,,2 B,,2 | E,4 F,2 B,,2 E,4 A,,4- | %98
w: et di- vi-|tes di-|mi- sit i- na- nes, di-|mi- sit i- na- nes,|
 A,,2 A,,2 D,4 G,,2 D,2 =C,4 | B,,4 G,,4 G,4 D,4 | E,4 F,4 D,4 E,4 | B,,4 =C,2 C,2 B,,8 | E,,16 || %103
w: * di- mi- sit i- na-|nes, di- mi- sit|i- na- nes, di-|mi- sit i- na-|nes.|
 z22 | z18 ||[M:4/2] E,8 E,4 B,4 | E,4 G,4 D,8 | z16 | D,8 A,4 G,4 | =C,4 D,4 G,,4 G,4 | %110
w: ||Si- cut lo-|cu- tus est,||si- cut lo-|cu- tus est ad|
 E,2 E,2 G,4 D,4 D,4 | B,,2 B,,2 D,4 A,,4 D,4 | B,,2 B,,2 F,4 D,4 E,4 | B,,2 B,,2 F,4 B,,4 B,4 | %114
w: pa- tres no- stros, ad|pa- tres no- stros, ad|pa- tres no- stros, ad|pa- tres no- stros, ad|
 E,2 G,2 F,4 B,,8 | E,12 E,4 | E,4 E,4 D,6 G,,2 | D,4 E,4 B,,4 G,,4 | A,,6 A,,2 B,,4 B,,4 | %119
w: pa- tres no- stros,|A- bra-|ham, et se- mi-|ni e- ius in|sae- cu- la, et|
 G,,6 A,,2 G,,4 D,4 | G,,4 D,4 E,6 E,2 | B,,4 B,,4 G,,6 G,,2 | B,,4 D,4 G,,4 B,,4 | A,,12 A,,4 | %124
w: se- mi- ni e-|ius in sae- cu-|la, et se- mi-|ni e- ius in|sae- cu-|
 E,24 || z22 | z18 ||[M:4/2] z16 | z16 | z8 G,,8 | (A,,8 B,,8) | B,,8 B,,8 | z16 | z16 | z8 D,8 | %135
w: la.|||||Si-|cut *|e- rat|||Si-|
 (E,8 F,8) | (G,6 F,2 E,2 D,2 E,4) | B,,4 D,8 D,4 | B,,4 B,,4 D,4 D,4 | F,4 A,4 (G,4 E,4- | %140
w: cut *|e\- * * * *|rat in prin-|ci- pi- o, et|nunc et sem\- *|
 E,2 F,2 G,4) =C,4 G,4 | E,4 (=C,6 D,2 E,4) | (B,,6 ^C,2 D,8) | A,,4 A,,4 E,4 ^D,4 | %144
w: * * * per, et|nunc et * *|sem\- * *|per, et nunc et|
 E,8 !fermata!B,,16 || E,12 E,4 | E,4 E,4 D,8 | G,12 E,4 | G,4 G,4 D,4 G,4- | %149
w: sem- per,|Et in|sae- cu- la,|et in|sae- cu- la sae\-|
 G,2 D,2 E,4 B,,4 F,4 | B,,4 E,8 E,4 | B,,4 E,4 B,,4 F,4 | B,,4 E,4 A,,8 | B,,8 E,,4 E,4- | %154
w: * cu- lo- rum, A-|men, et in|sae- cu- la sae-|cu- lo- rum,|A- men, et|
 E,4 E,4 B,,4 E,4 | B,,4 F,4 B,,4 E,4 | A,,8 B,,8 | E,,16 |] %158
w: * in sae- cu-|la sae- cu- lo-|rum, A-|men.|

